X: 22869
T: Lark In The Morning, The
R: jig
M: 6/8
K: Dmajor
|:AFA AFA|BGB BdB|AFA AFA|fed B/c/dB|
AFA AFA|BGB BAB|def afe|1 fdB BdB:|2 fdB BAB||
|:def a3|baf afe|def afe|fdB BAB|
def a3|baf a2e|g3 fgf|edB BAB:|
|:d2f fef|fef fef|d2f fef|edB BAB|
d2f fef|fef fef|g3 fgf|1 edB BAB:|2 edB BdB||
Add fdd|edd fdd|Add fdd|edB BdB|
Add fdd|edd fdd|g3 fgf|edB BdB|
Add fdd|edd fdd|edd fdd|edB BdB|
Add fdd|edd fdd|g3 fgf|edB BdB||

